apps/service-portal/src/assets/images/educationDegree.svg

<svg width="169" height="250" viewBox="0 0 169 250" fill="none" xmlns="http://www.w3.org/2000/svg">
<path d="M168.333 149.627L122.617 163.297C122.617 163.297 117.697 161.65 106.957 158.064C96.2161 154.479 94.2099 154.098 87.6268 155.982C81.1733 157.156 69.3419 173.58 69.3419 173.58C79.1747 174.381 86.5969 168.179 86.5969 168.179L116.065 182.787H168.341V149.627H168.333ZM41.3235 15.7446C27.7987 15.7446 16.8369 26.7064 16.8369 40.2312C16.8369 53.756 27.7987 64.7178 41.3235 64.7178C54.8483 64.7178 65.8101 53.756 65.8101 40.2312C65.8101 26.7064 54.8483 15.7446 41.3235 15.7446Z" fill="url(#paint0_linear)"/>
<path d="M55.245 9.12335C57.7644 9.12335 59.8067 7.08101 59.8067 4.56167C59.8067 2.04233 57.7644 0 55.245 0C52.7257 0 50.6833 2.04233 50.6833 4.56167C50.6833 7.08101 52.7257 9.12335 55.245 9.12335Z" fill="#0061FF"/>
<path d="M147.699 249.877C150.218 249.877 152.26 247.835 152.26 245.316C152.26 242.796 150.218 240.754 147.699 240.754C145.179 240.754 143.137 242.796 143.137 245.316C143.137 247.835 145.179 249.877 147.699 249.877Z" fill="#0061FF"/>
<path d="M71.8594 174.724C69.7387 174.724 68.5335 174.312 68.3962 174.267C68.03 174.137 67.7554 173.832 67.6715 173.45C67.5799 173.077 67.6867 172.68 67.9613 172.398L80.3114 159.475C80.5403 159.239 80.7767 159.003 81.0132 158.774C86.1089 153.937 93.5693 152.374 100.496 154.685L122.808 162.138C127.469 161.939 150.018 154.113 158.424 151.077C159.019 150.863 159.675 151.168 159.889 151.763C160.103 152.358 159.797 153.014 159.202 153.228C157.936 153.686 128.14 164.434 122.633 164.434C122.511 164.434 122.389 164.411 122.267 164.373L99.771 156.859C93.6532 154.815 87.07 156.188 82.5923 160.437C82.3787 160.635 82.1727 160.841 81.9744 161.054L71.1347 172.398C74.2699 172.558 80.998 171.726 89.9688 164.182C90.4493 163.778 91.174 163.839 91.5783 164.319C91.9826 164.8 91.9216 165.525 91.441 165.929C82.5999 173.359 75.7269 174.724 71.8594 174.724Z" fill="#6A2EA0"/>
<path d="M122.617 187.219C122.449 187.219 122.274 187.181 122.106 187.097L86.0781 169.201C85.5136 168.919 85.2847 168.233 85.5594 167.668C85.8416 167.104 86.5281 166.875 87.0926 167.149L123.121 185.045C123.685 185.327 123.914 186.014 123.639 186.578C123.441 186.983 123.037 187.219 122.617 187.219Z" fill="#6A2EA0"/>
<path d="M113.166 193.764C112.99 193.764 112.823 193.726 112.655 193.642C105.873 190.255 89.0912 182.467 88.9158 182.391C88.3437 182.124 88.0919 181.445 88.3589 180.873C88.6259 180.301 89.3048 180.049 89.8769 180.316C90.0448 180.392 106.865 188.188 113.677 191.598C114.241 191.88 114.47 192.567 114.188 193.131C113.99 193.535 113.585 193.764 113.166 193.764Z" fill="#6A2EA0"/>
<path d="M102.425 199.348C102.25 199.348 102.082 199.31 101.914 199.226L83.2328 189.904C82.6683 189.622 82.4395 188.936 82.7217 188.371C83.004 187.807 83.6905 187.578 84.255 187.86L102.936 197.182C103.501 197.464 103.73 198.151 103.448 198.715C103.249 199.119 102.845 199.348 102.425 199.348Z" fill="#6A2EA0"/>
<path d="M90.2966 202.087C90.1287 202.087 89.9609 202.049 89.8007 201.972L74.14 194.413C73.5679 194.138 73.3314 193.452 73.606 192.887C73.8806 192.315 74.5672 192.078 75.1317 192.353L90.7924 199.913C91.3645 200.187 91.601 200.874 91.3264 201.438C91.128 201.85 90.7237 202.087 90.2966 202.087Z" fill="#6A2EA0"/>
<path d="M78.7627 204.833C78.7016 204.833 78.6406 204.825 78.5872 204.818C78.1753 204.757 68.4188 203.094 54.299 189.706C43.2838 179.263 1.67953 183.42 1.26761 183.466C0.634468 183.527 0.0776088 183.077 0.00895484 182.444C-0.0520709 181.818 0.397994 181.254 1.03114 181.185C2.78563 181.002 44.1 176.875 55.878 188.043C69.4105 200.874 78.8542 202.537 78.9457 202.552C79.5712 202.651 79.9908 203.239 79.8916 203.864C79.8001 204.436 79.3195 204.833 78.7627 204.833Z" fill="#6A2EA0"/>
<path d="M49.4551 163.412C49.3331 163.412 49.211 163.389 49.089 163.351L0.779463 147.011C0.176834 146.805 -0.143551 146.157 0.0624106 145.562C0.260744 144.959 0.909142 144.639 1.51177 144.845L49.3788 161.039C65.7261 153.358 85.8417 155.089 86.6961 155.166C87.3216 155.227 87.7869 155.783 87.7335 156.409C87.6801 157.042 87.1232 157.507 86.4901 157.446C86.2841 157.431 65.7871 155.669 49.9509 163.305C49.7908 163.374 49.6229 163.412 49.4551 163.412Z" fill="#6A2EA0"/>
<path d="M115.775 107.863H49.9281C44.5502 107.863 40.1792 103.492 40.1792 98.1141V48.8435C40.1792 43.4656 44.5502 39.0946 49.9281 39.0946H140.406C145.784 39.0946 150.155 43.4656 150.155 48.8435V73.475C150.155 74.1081 149.644 74.6192 149.011 74.6192C148.378 74.6192 147.867 74.1081 147.867 73.475V48.8435C147.867 44.7319 144.518 41.3831 140.406 41.3831H49.9281C45.8164 41.3831 42.4677 44.7319 42.4677 48.8435V98.1141C42.4677 102.226 45.8164 105.575 49.9281 105.575H115.775C116.408 105.575 116.919 106.086 116.919 106.719C116.919 107.352 116.408 107.863 115.775 107.863Z" fill="#6A2EA0"/>
<path d="M132.397 74.6192H115.775C115.142 74.6192 114.631 74.1081 114.631 73.4749V67.1206C114.631 66.4875 115.142 65.9764 115.775 65.9764C116.408 65.9764 116.919 66.4875 116.919 67.1206V72.3307H131.252V56.6166H121.595C120.962 56.6166 120.451 56.1055 120.451 55.4724C120.451 54.8392 120.962 54.3281 121.595 54.3281H132.397C133.03 54.3281 133.541 54.8392 133.541 55.4724V73.4749C133.541 74.1081 133.03 74.6192 132.397 74.6192Z" fill="#6A2EA0"/>
<path d="M124.082 69.6227C123.754 69.6227 123.441 69.4854 123.228 69.2337L114.921 59.8204C114.501 59.3475 114.547 58.6228 115.02 58.2033C115.493 57.7837 116.217 57.8295 116.637 58.3024L123.937 66.5638L135.006 48.9426C135.341 48.4086 136.051 48.2484 136.585 48.5841C137.119 48.9197 137.279 49.6292 136.943 50.1631L125.059 69.0811C124.868 69.3862 124.54 69.5846 124.181 69.6151C124.143 69.6227 124.113 69.6227 124.082 69.6227Z" fill="#6A2EA0"/>
<path d="M41.6897 86.1302C37.5323 86.1302 33.3673 85.1919 29.7134 83.323C21.8105 79.2724 13.5263 79.2419 8.08737 83.2238C7.57628 83.5976 6.85923 83.4908 6.48544 82.9797C6.11166 82.4686 6.21846 81.7516 6.72955 81.3778C12.8703 76.8771 22.0699 76.839 30.7508 81.2786C37.4179 84.6961 45.9691 84.6961 52.5217 81.2786C60.0584 77.3501 69.2351 77.373 76.4743 81.3244C77.0312 81.6295 77.2295 82.3237 76.932 82.8806C76.6345 83.4374 75.9327 83.6434 75.3759 83.3382C68.8995 79.7988 60.3406 79.7911 53.5744 83.3154C49.9892 85.1919 45.847 86.1302 41.6897 86.1302Z" fill="#6A2EA0"/>
<defs>
<linearGradient id="paint0_linear" x1="16.8344" y1="99.2659" x2="168.336" y2="99.2659" gradientUnits="userSpaceOnUse">
<stop stop-color="#4C90FF"/>
<stop offset="0.1262" stop-color="#5B8BF5"/>
<stop offset="0.3684" stop-color="#827CDA"/>
<stop offset="0.6985" stop-color="#C064AF"/>
<stop offset="1" stop-color="#FF4C84"/>
</linearGradient>
</defs>
</svg>

<svg width="169" height="250" fill="none" xmlns="http://www.w3.org/2000/svg"><path d="m168.333 149.627-45.716 13.67s-4.92-1.647-15.66-5.233c-10.74-3.585-12.747-3.966-19.33-2.082-6.454 1.174-18.285 17.598-18.285 17.598 9.833.801 17.255-5.401 17.255-5.401l29.468 14.608h52.276v-33.16h-.008ZM41.323 15.745c-13.524 0-24.486 10.961-24.486 24.486s10.962 24.487 24.487 24.487c13.524 0 24.486-10.962 24.486-24.487 0-13.525-10.962-24.486-24.486-24.486Z" fill="url(#a)"/><path d="M55.245 9.123a4.562 4.562 0 1 0 0-9.123 4.562 4.562 0 0 0 0 9.123ZM147.699 249.877a4.561 4.561 0 1 0 0-9.122 4.561 4.561 0 0 0 0 9.122Z" fill="#0061FF"/><path d="M71.86 174.724c-2.121 0-3.326-.412-3.464-.457a1.122 1.122 0 0 1-.725-.817c-.091-.373.016-.77.29-1.052l12.35-12.923c.23-.236.466-.472.702-.701 5.096-4.837 12.556-6.4 19.483-4.089l22.312 7.453c4.661-.199 27.21-8.025 35.616-11.061a1.143 1.143 0 1 1 .778 2.151c-1.266.458-31.062 11.206-36.569 11.206-.122 0-.244-.023-.366-.061l-22.496-7.514c-6.118-2.044-12.701-.671-17.179 3.578-.213.198-.42.404-.618.617l-10.84 11.344c3.136.16 9.864-.672 18.835-8.216a1.147 1.147 0 0 1 1.61.137 1.146 1.146 0 0 1-.138 1.61c-8.841 7.43-15.714 8.795-19.582 8.795Z" fill="#6A2EA0"/><path d="M122.617 187.219a1.14 1.14 0 0 1-.511-.122l-36.028-17.896a1.152 1.152 0 0 1-.519-1.533 1.153 1.153 0 0 1 1.534-.519l36.028 17.896c.564.282.793.969.518 1.533a1.138 1.138 0 0 1-1.022.641ZM113.166 193.764c-.176 0-.343-.038-.511-.122-6.782-3.387-23.564-11.175-23.74-11.251a1.144 1.144 0 0 1 .962-2.075c.168.076 16.988 7.872 23.8 11.282a1.143 1.143 0 0 1-.511 2.166ZM102.425 199.348a1.12 1.12 0 0 1-.511-.122l-18.681-9.322a1.142 1.142 0 1 1 1.022-2.044l18.681 9.322a1.143 1.143 0 0 1-.511 2.166ZM90.297 202.087a1.14 1.14 0 0 1-.496-.115l-15.661-7.559a1.141 1.141 0 0 1-.534-1.526 1.14 1.14 0 0 1 1.526-.534l15.66 7.56c.573.274.809.961.534 1.525a1.138 1.138 0 0 1-1.03.649ZM78.763 204.833c-.061 0-.122-.008-.176-.015-.412-.061-10.168-1.724-24.288-15.112-11.015-10.443-52.62-6.286-53.031-6.24a1.147 1.147 0 0 1-1.259-1.022 1.152 1.152 0 0 1 1.022-1.259c1.755-.183 43.069-4.31 54.847 6.858 13.532 12.831 22.976 14.494 23.068 14.509.625.099 1.045.687.946 1.312a1.14 1.14 0 0 1-1.13.969ZM49.455 163.412c-.122 0-.244-.023-.366-.061l-48.31-16.34a1.14 1.14 0 0 1-.717-1.449 1.133 1.133 0 0 1 1.45-.717l47.867 16.194c16.347-7.681 36.463-5.95 37.317-5.873.626.061 1.09.617 1.038 1.243a1.136 1.136 0 0 1-1.244 1.037c-.206-.015-20.703-1.777-36.54 5.859-.16.069-.327.107-.495.107ZM115.775 107.863H49.928c-5.378 0-9.749-4.371-9.749-9.749v-49.27c0-5.378 4.371-9.75 9.75-9.75h90.477c5.378 0 9.749 4.372 9.749 9.75v24.631c0 .633-.511 1.144-1.144 1.144a1.143 1.143 0 0 1-1.144-1.144V48.844c0-4.112-3.349-7.46-7.461-7.46H49.928c-4.112 0-7.46 3.348-7.46 7.46v49.27c0 4.112 3.348 7.461 7.46 7.461h65.847c.633 0 1.144.511 1.144 1.144 0 .633-.511 1.144-1.144 1.144Z" fill="#6A2EA0"/><path d="M132.397 74.62h-16.622a1.143 1.143 0 0 1-1.144-1.145V67.12c0-.633.511-1.145 1.144-1.145.633 0 1.144.511 1.144 1.145v5.21h14.333V56.617h-9.657a1.143 1.143 0 0 1-1.144-1.145c0-.633.511-1.144 1.144-1.144h10.802c.633 0 1.144.511 1.144 1.144v18.003c0 .633-.511 1.144-1.144 1.144Z" fill="#6A2EA0"/><path d="M124.082 69.623c-.328 0-.641-.138-.854-.39l-8.307-9.413a1.146 1.146 0 0 1 1.716-1.518l7.3 8.262 11.069-17.621a1.147 1.147 0 0 1 1.579-.359c.534.336.694 1.045.358 1.58L125.059 69.08a1.154 1.154 0 0 1-.878.534c-.038.008-.068.008-.099.008ZM41.69 86.13c-4.158 0-8.323-.938-11.977-2.807-7.902-4.05-16.187-4.081-21.626-.1a1.145 1.145 0 1 1-1.357-1.845c6.14-4.5 15.34-4.539 24.02-.1 6.668 3.418 15.22 3.418 21.772 0 7.536-3.928 16.713-3.905 23.952.046.557.305.755 1 .458 1.557-.297.556-1 .762-1.556.457-6.477-3.54-15.035-3.547-21.802-.023-3.585 1.877-7.727 2.815-11.884 2.815Z" fill="#6A2EA0"/><defs><linearGradient id="a" x1="16.834" y1="99.266" x2="168.336" y2="99.266" gradientUnits="userSpaceOnUse"><stop stop-color="#4C90FF"/><stop offset=".126" stop-color="#5B8BF5"/><stop offset=".368" stop-color="#827CDA"/><stop offset=".699" stop-color="#C064AF"/><stop offset="1" stop-color="#FF4C84"/></linearGradient></defs></svg>
